assets/svg/underway.svg

<?xml version="1.0" encoding="UTF-8"?>
<svg width="1000px" height="1000px" viewBox="0 0 1000 1000" version="1.1" xmlns="http://www.w3.org/2000/svg" xmlns:xlink="http://www.w3.org/1999/xlink">
    <!-- Generator: sketchtool 52.4 (67378) - http://www.bohemiancoding.com/sketch -->
    <title>underway</title>
    <desc>Created with sketchtool.</desc>
    <g id="旧版图标(剩余)" stroke="none" stroke-width="1" fill="none" fill-rule="evenodd">
        <path d="M519.029947,546.236123 L504.962259,199.23314 C504.955273,199.060826 504.813549,198.924731 504.641094,198.924731 L451.494976,198.924731 C451.322521,198.924731 451.180797,199.060826 451.173812,199.23314 L435.229685,592.521605 L434.732917,593.537745 C434.732015,593.53959 434.731122,593.541439 434.730238,593.543293 C434.577367,593.863736 434.713212,594.247433 435.033656,594.400304 L435.151247,594.456402 L435.0844,596.105296 C435.084048,596.113972 435.083872,596.122654 435.083872,596.131336 C435.083872,596.486377 435.371689,596.774194 435.726729,596.774194 L440.009746,596.774194 L701.276481,721.413897 C701.427883,721.486124 701.609371,721.429778 701.693245,721.284504 L722.900404,684.552626 C722.984721,684.406585 722.94184,684.220212 722.802178,684.125705 L519.029947,546.236123 Z M1000,506.17284 C1000,776.148148 776.148148,1000 493.82716,1000 C223.851852,1000 0,776.148148 0,506.17284 C0,223.851852 223.851852,0 493.82716,0 C776.148148,0 1000,223.851852 1000,506.17284 Z" id="underway" fill="#10AEFF"></path>
    </g>
</svg>

<svg width="1000" height="1000" xmlns="http://www.w3.org/2000/svg"><path d="M519.03 546.236l-14.068-347.003a.321.321 0 0 0-.32-.308h-53.147a.321.321 0 0 0-.321.308L435.23 592.522l-.497 1.016a.643.643 0 0 0 .3.863l.118.055-.067 1.65a.642.642 0 0 0 .643.668h4.283l261.266 124.64a.321.321 0 0 0 .417-.13l21.207-36.731a.321.321 0 0 0-.098-.427L519.03 546.236zM1000 506.173C1000 776.148 776.148 1000 493.827 1000 223.852 1000 0 776.148 0 506.173 0 223.852 223.852 0 493.827 0 776.148 0 1000 223.852 1000 506.173z" fill="#10AEFF" fill-rule="evenodd"/></svg>
